X:12
T:Duncan Davidson. 2voices. Dix.12
M:C
L:1/8
Q:1/4=120
S:Anon. MS dated 1811, from Dixon collection, Holton le Moor, Lincs.
R:strathspey
C:a Strathspey
C:an extremely rude song by Robbie Burns
N:Repeat marks added at start
O:England;Lincolnshire;Holton le Moor
Z:vmp.R.Greig 2010 <http://www.village-music-project.org.uk>
K:E
[V:1]|:E>GB>c BGBc|E2{d}e>c BGFG|E>GBc BGBa|g>af>g eee2:|
[V:2]|:E,2E,2E,2z2|E,2E,2E,2B,,2|E,2E,2E,2E,2|E,2B,2E,2E,2:|
[V:1]|:{a}gf e/f/g/a/ bg”tr”fe|d”tr”Bf”tr”B g”tr”Bf”tr”B|{a}gf e/f/g/a/ bgfe|caf”tr”g {ef}eee2:|
[V:2]|:E,2E,2E,4|B,,2B,,2B,,4|E,2E,2E,2G,2|A,2B,2E,2E,2:|

